web/themes/custom/surf_main/images/icons/ui-icon-instagram.svg

<svg fill="none" height="28" viewBox="0 0 28 28" width="28" xmlns="http://www.w3.org/2000/svg"><path d="m14.1722 8.05501c-3.375 0-6.06446 2.74219-6.06446 6.06449 0 3.375 2.68946 6.0644 6.06446 6.0644 3.3223 0 6.0644-2.6894 6.0644-6.0644 0-3.3223-2.7421-6.06449-6.0644-6.06449zm0 10.01949c-2.1621 0-3.9551-1.7402-3.9551-3.955 0-2.1621 1.7403-3.9024 3.9551-3.9024 2.1621 0 3.9023 1.7403 3.9023 3.9024 0 2.2148-1.7402 3.955-3.9023 3.955zm7.6992-10.23042c0-.79102-.6328-1.42383-1.4238-1.42383s-1.4238.63281-1.4238 1.42383c0 .79101.6328 1.42382 1.4238 1.42382s1.4238-.63281 1.4238-1.42382zm4.0078 1.42382c-.1054-1.89843-.5273-3.58593-1.8984-4.95703-1.3711-1.37109-3.0586-1.79297-4.957-1.89843-1.9512-.10547-7.8047-.10547-9.7559 0-1.89844.10546-3.5332.52734-4.95703 1.89843-1.3711 1.3711-1.79297 3.0586-1.89844 4.95703-.10547 1.9512-.10547 7.8047 0 9.7559.10547 1.8984.52734 3.5332 1.89844 4.957 1.42383 1.3711 3.05859 1.793 4.95703 1.8984 1.9512.1055 7.8047.1055 9.7559 0 1.8984-.1054 3.5859-.5273 4.957-1.8984 1.3711-1.4238 1.793-3.0586 1.8984-4.957.1055-1.9512.1055-7.8047 0-9.7559zm-2.5312 11.8125c-.3692 1.0547-1.2129 1.8457-2.2149 2.2676-1.582.6328-5.2734.4746-6.9609.4746-1.7402 0-5.43165.1582-6.96094-.4746-1.05469-.4219-1.84571-1.2129-2.26758-2.2676-.63281-1.5293-.47461-5.2207-.47461-6.9609 0-1.6875-.1582-5.37894.47461-6.96097.42187-1.00195 1.21289-1.79297 2.26758-2.21484 1.52929-.63282 5.22074-.47461 6.96094-.47461 1.6875 0 5.3789-.15821 6.9609.47461 1.002.36914 1.793 1.21289 2.2149 2.21484.6328 1.58203.4746 5.27347.4746 6.96097 0 1.7402.1582 5.4316-.4746 6.9609z" fill="#222"/></svg>

<svg width="28" height="28" viewBox="0 0 28 28" fill="none" xmlns="http://www.w3.org/2000/svg">
<path d="M14.1722 8.05501C10.7972 8.05501 8.10774 10.7972 8.10774 14.1195C8.10774 17.4945 10.7972 20.1839 14.1722 20.1839C17.4945 20.1839 20.2366 17.4945 20.2366 14.1195C20.2366 10.7972 17.4945 8.05501 14.1722 8.05501ZM14.1722 18.0745C12.0101 18.0745 10.2171 16.3343 10.2171 14.1195C10.2171 11.9574 11.9574 10.2171 14.1722 10.2171C16.3343 10.2171 18.0745 11.9574 18.0745 14.1195C18.0745 16.3343 16.3343 18.0745 14.1722 18.0745ZM21.8714 7.84408C21.8714 7.05306 21.2386 6.42025 20.4476 6.42025C19.6566 6.42025 19.0238 7.05306 19.0238 7.84408C19.0238 8.63509 19.6566 9.2679 20.4476 9.2679C21.2386 9.2679 21.8714 8.63509 21.8714 7.84408ZM25.8792 9.2679C25.7738 7.36947 25.3519 5.68197 23.9808 4.31087C22.6097 2.93978 20.9222 2.5179 19.0238 2.41244C17.0726 2.30697 11.2191 2.30697 9.2679 2.41244C7.36946 2.5179 5.7347 2.93978 4.31087 4.31087C2.93977 5.68197 2.5179 7.36947 2.41243 9.2679C2.30696 11.2191 2.30696 17.0726 2.41243 19.0238C2.5179 20.9222 2.93977 22.557 4.31087 23.9808C5.7347 25.3519 7.36946 25.7738 9.2679 25.8792C11.2191 25.9847 17.0726 25.9847 19.0238 25.8792C20.9222 25.7738 22.6097 25.3519 23.9808 23.9808C25.3519 22.557 25.7738 20.9222 25.8792 19.0238C25.9847 17.0726 25.9847 11.2191 25.8792 9.2679ZM23.348 21.0804C22.9788 22.1351 22.1351 22.9261 21.1331 23.348C19.5511 23.9808 15.8597 23.8226 14.1722 23.8226C12.432 23.8226 8.74055 23.9808 7.21126 23.348C6.15657 22.9261 5.36555 22.1351 4.94368 21.0804C4.31087 19.5511 4.46907 15.8597 4.46907 14.1195C4.46907 12.432 4.31087 8.74056 4.94368 7.15853C5.36555 6.15658 6.15657 5.36556 7.21126 4.94369C8.74055 4.31087 12.432 4.46908 14.1722 4.46908C15.8597 4.46908 19.5511 4.31087 21.1331 4.94369C22.1351 5.31283 22.9261 6.15658 23.348 7.15853C23.9808 8.74056 23.8226 12.432 23.8226 14.1195C23.8226 15.8597 23.9808 19.5511 23.348 21.0804Z" fill="#222222"/>
</svg>
